austria/municipalities/40510.svg

<?xml version="1.0" encoding="UTF-8"?>
<!DOCTYPE svg PUBLIC "-//W3C//DTD SVG 1.1//EN" "http://www.w3.org/Graphics/SVG/1.1/DTD/svg11.dtd">
<svg xmlns="http://www.w3.org/2000/svg" version="1.1" width="166px" height="207px" style="shape-rendering:geometricPrecision; text-rendering:geometricPrecision; image-rendering:optimizeQuality; fill-rule:evenodd; clip-rule:evenodd" xmlns:xlink="http://www.w3.org/1999/xlink">
<g><path style="opacity:1" fill="#000000" d="M -0.5,-0.5 C 54.8333,-0.5 110.167,-0.5 165.5,-0.5C 165.5,44.1667 165.5,88.8333 165.5,133.5C 157.503,172.498 134.169,196.831 95.5,206.5C 86.8333,206.5 78.1667,206.5 69.5,206.5C 29.593,196.928 6.25968,171.928 -0.5,131.5C -0.5,87.5 -0.5,43.5 -0.5,-0.5 Z"/></g>
<g><path style="opacity:1" fill="#006632" d="M 3.5,3.5 C 56.1667,3.5 108.833,3.5 161.5,3.5C 161.667,47.8346 161.5,92.1679 161,136.5C 159.532,144.905 156.865,152.905 153,160.5C 142.683,156.832 133.183,158.332 124.5,165C 114.931,167.675 105.931,166.342 97.5,161C 93.8626,160.283 90.196,159.783 86.5,159.5C 75.7442,161.523 65.0776,163.856 54.5,166.5C 44.7389,163.935 34.9056,161.602 25,159.5C 21.3483,160.024 17.8483,161.024 14.5,162.5C 12.7684,160.717 11.2684,158.717 10,156.5C 7.70162,149.574 5.70162,142.574 4,135.5C 3.50001,91.5013 3.33334,47.5013 3.5,3.5 Z"/></g>
<g><path style="opacity:1" fill="#000000" d="M 120.5,25.5 C 124.634,24.5151 128.968,24.1818 133.5,24.5C 133.5,27.8333 133.5,31.1667 133.5,34.5C 135.833,34.5 138.167,34.5 140.5,34.5C 140.5,38.5 140.5,42.5 140.5,46.5C 138.167,46.5 135.833,46.5 133.5,46.5C 133.5,68.5 133.5,90.5 133.5,112.5C 135.792,112.244 137.959,112.577 140,113.5C 140.5,120.826 140.666,128.159 140.5,135.5C 138.167,135.5 135.833,135.5 133.5,135.5C 133.5,138.833 133.5,142.167 133.5,145.5C 128.968,145.818 124.634,145.485 120.5,144.5C 119.523,141.713 119.19,138.713 119.5,135.5C 94.8333,135.5 70.1667,135.5 45.5,135.5C 45.5,138.833 45.5,142.167 45.5,145.5C 40.8333,145.5 36.1667,145.5 31.5,145.5C 31.5,142.167 31.5,138.833 31.5,135.5C 29.1667,135.5 26.8333,135.5 24.5,135.5C 24.3337,128.159 24.5003,120.826 25,113.5C 27.0408,112.577 29.2075,112.244 31.5,112.5C 31.5,90.5 31.5,68.5 31.5,46.5C 29.1667,46.5 26.8333,46.5 24.5,46.5C 24.5,42.5 24.5,38.5 24.5,34.5C 26.8333,34.5 29.1667,34.5 31.5,34.5C 31.5,31.1667 31.5,27.8333 31.5,24.5C 36.1667,24.5 40.8333,24.5 45.5,24.5C 45.5,27.8333 45.5,31.1667 45.5,34.5C 55.5,34.5 65.5,34.5 75.5,34.5C 75.926,26.6853 75.926,18.852 75.5,11C 77.0824,8.12845 79.5824,6.96178 83,7.5C 85.3523,7.3049 87.3523,7.97157 89,9.5C 88.6225,17.3989 88.7892,25.3989 89.5,33.5C 99.4778,34.4985 109.478,34.8319 119.5,34.5C 119.19,31.2869 119.523,28.2869 120.5,25.5 Z"/></g>
<g><path style="opacity:1" fill="#fe9900" d="M 77.5,9.5 C 87.9005,9.32134 87.9005,10.3213 77.5,12.5C 77.5,11.5 77.5,10.5 77.5,9.5 Z"/></g>
<g><path style="opacity:1" fill="#fe9900" d="M 85.5,16.5 C 82.5314,17.3287 79.5314,17.4954 76.5,17C 77.1667,16 77.8333,15 78.5,14C 81.2635,13.4677 83.9302,12.6343 86.5,11.5C 87.3081,11.8076 87.9747,12.3076 88.5,13C 87.635,14.3588 86.635,15.5255 85.5,16.5 Z"/></g>
<g><path style="opacity:1" fill="#fe9900" d="M 85.5,16.5 C 88.1731,16.6845 88.8398,17.8511 87.5,20C 84.0684,22.0717 80.4017,22.7383 76.5,22C 77.0465,21.0754 77.7132,20.2421 78.5,19.5C 81.127,18.9422 83.4604,17.9422 85.5,16.5 Z"/></g>
<g><path style="opacity:1" fill="#fe9900" d="M 81.5,28.5 C 79.5714,28.7692 77.9047,28.2692 76.5,27C 80.0208,23.8786 84.0208,22.712 88.5,23.5C 86.5118,25.7081 84.1785,27.3747 81.5,28.5 Z"/></g>
<g><path style="opacity:1" fill="#fe9900" d="M 32.5,25.5 C 36.1667,25.5 39.8333,25.5 43.5,25.5C 43.5,28.5 43.5,31.5 43.5,34.5C 39.8333,34.5 36.1667,34.5 32.5,34.5C 32.5,31.5 32.5,28.5 32.5,25.5 Z"/></g>
<g><path style="opacity:1" fill="#fe9900" d="M 120.5,25.5 C 124.5,25.5 128.5,25.5 132.5,25.5C 132.5,28.5 132.5,31.5 132.5,34.5C 128.5,34.5 124.5,34.5 120.5,34.5C 120.5,31.5 120.5,28.5 120.5,25.5 Z"/></g>
<g><path style="opacity:1" fill="#fe9900" d="M 81.5,28.5 C 83.2624,28.6427 84.9291,28.3094 86.5,27.5C 89.028,28.5174 89.028,29.6841 86.5,31C 83.8276,31.8344 81.161,32.6677 78.5,33.5C 77.6919,33.1924 77.0253,32.6924 76.5,32C 77.9555,30.3743 79.6221,29.2076 81.5,28.5 Z"/></g>
<g><path style="opacity:1" fill="#fe9900" d="M 85.5,32.5 C 86.7562,32.4614 87.7562,32.9614 88.5,34C 86.5,34.6667 84.5,34.6667 82.5,34C 83.7375,33.7679 84.7375,33.2679 85.5,32.5 Z"/></g>
<g><path style="opacity:1" fill="#fe9900" d="M 26.5,35.5 C 63.8333,35.5 101.167,35.5 138.5,35.5C 138.5,38.8333 138.5,42.1667 138.5,45.5C 101.167,45.5 63.8333,45.5 26.5,45.5C 26.5,42.1667 26.5,38.8333 26.5,35.5 Z"/></g>
<g><path style="opacity:1" fill="#fe9900" d="M 32.5,46.5 C 36.1667,46.5 39.8333,46.5 43.5,46.5C 43.5,68.5 43.5,90.5 43.5,112.5C 39.8333,112.5 36.1667,112.5 32.5,112.5C 32.5,90.5 32.5,68.5 32.5,46.5 Z"/></g>
<g><path style="opacity:1" fill="#006632" d="M 45.5,46.5 C 55.5,46.5 65.5,46.5 75.5,46.5C 75.7309,51.9995 75.7309,57.6662 75.5,63.5C 74.5,63.5 73.5,63.5 72.5,63.5C 72.3341,68.5111 72.5007,73.5111 73,78.5C 76.9392,83.014 75.7725,84.6807 69.5,83.5C 69.5,85.1667 69.5,86.8333 69.5,88.5C 68.1667,88.5 66.8333,88.5 65.5,88.5C 65.5,89.8333 65.5,91.1667 65.5,92.5C 58.9347,91.422 56.768,94.0886 59,100.5C 62.3936,101.456 65.8936,101.789 69.5,101.5C 69.5,105.167 69.5,108.833 69.5,112.5C 61.5,112.5 53.5,112.5 45.5,112.5C 45.5,90.5 45.5,68.5 45.5,46.5 Z"/></g>
<g><path style="opacity:1" fill="#fe9900" d="M 76.5,46.5 C 79.5184,46.3354 82.5184,46.502 85.5,47C 83.3513,47.5788 81.1846,48.0788 79,48.5C 77.6244,48.3158 76.7911,47.6491 76.5,46.5 Z"/></g>
<g><path style="opacity:1" fill="#006632" d="M 88.5,47.5 C 98.6532,46.5058 108.986,46.1724 119.5,46.5C 119.5,68.5 119.5,90.5 119.5,112.5C 111.5,112.5 103.5,112.5 95.5,112.5C 95.5,108.833 95.5,105.167 95.5,101.5C 99.1064,101.789 102.606,101.456 106,100.5C 108.232,94.0886 106.065,91.422 99.5,92.5C 99.5,91.1667 99.5,89.8333 99.5,88.5C 98.1667,88.5 96.8333,88.5 95.5,88.5C 95.5,86.8333 95.5,85.1667 95.5,83.5C 93.8333,83.5 92.1667,83.5 90.5,83.5C 91.9215,79.7189 92.5882,75.7189 92.5,71.5C 93.2958,67.0599 91.9625,63.5599 88.5,61C 89.3933,56.2344 89.3933,51.7344 88.5,47.5 Z"/></g>
<g><path style="opacity:1" fill="#fe9900" d="M 120.5,46.5 C 124.5,46.5 128.5,46.5 132.5,46.5C 132.5,68.5 132.5,90.5 132.5,112.5C 128.5,112.5 124.5,112.5 120.5,112.5C 120.5,90.5 120.5,68.5 120.5,46.5 Z"/></g>
<g><path style="opacity:1" fill="#fe9900" d="M 83.5,48.5 C 89.8781,49.7057 89.5447,51.2057 82.5,53C 80.5,53.6667 78.5,53.6667 76.5,53C 78.5922,50.964 80.9255,49.464 83.5,48.5 Z"/></g>
<g><path style="opacity:1" fill="#fe9900" d="M 83.5,53.5 C 85.288,53.2148 86.9547,53.5481 88.5,54.5C 84.8312,57.0029 80.8312,58.1696 76.5,58C 78.6077,56.0702 80.941,54.5702 83.5,53.5 Z"/></g>
<g><path style="opacity:1" fill="#fe9900" d="M 84.5,57.5 C 85.9778,57.238 87.3112,57.5713 88.5,58.5C 88.3333,58.8333 88.1667,59.1667 88,59.5C 85.0515,61.2044 81.8848,62.5378 78.5,63.5C 77.5713,62.3112 77.238,60.9778 77.5,59.5C 80.1522,59.5905 82.4855,58.9238 84.5,57.5 Z"/></g>
<g><path style="opacity:1" fill="#fe9900" d="M 73.5,65.5 C 79.5,65.5 85.5,65.5 91.5,65.5C 91.5,69.5 91.5,73.5 91.5,77.5C 85.5,77.5 79.5,77.5 73.5,77.5C 73.5,73.5 73.5,69.5 73.5,65.5 Z"/></g>
<g><path style="opacity:1" fill="#000000" d="M 81.5,66.5 C 82.7079,67.2341 84.0413,67.5674 85.5,67.5C 86.874,71.1006 85.7073,73.7673 82,75.5C 76.267,72.6544 76.1003,69.6544 81.5,66.5 Z"/></g>
<g><path style="opacity:1" fill="#fe9900" d="M 75.5,78.5 C 80.2137,78.1734 84.8804,78.5067 89.5,79.5C 89.1667,80.1667 88.8333,80.8333 88.5,81.5C 84.5,82.8333 80.5,82.8333 76.5,81.5C 75.8728,80.5832 75.5394,79.5832 75.5,78.5 Z"/></g>
<g><path style="opacity:1" fill="#fe9900" d="M 71.5,84.5 C 78.8333,84.5 86.1667,84.5 93.5,84.5C 93.5,87.1667 93.5,89.8333 93.5,92.5C 86.1667,92.5 78.8333,92.5 71.5,92.5C 71.5,89.8333 71.5,87.1667 71.5,84.5 Z"/></g>
<g><path style="opacity:1" fill="#fe9900" d="M 66.5,89.5 C 67.5,89.5 68.5,89.5 69.5,89.5C 69.5,91.5 69.5,93.5 69.5,95.5C 68.5,95.5 67.5,95.5 66.5,95.5C 66.5,93.5 66.5,91.5 66.5,89.5 Z"/></g>
<g><path style="opacity:1" fill="#fe9900" d="M 95.5,89.5 C 96.6935,89.9704 97.3601,90.9704 97.5,92.5C 97.1667,93.5 96.8333,94.5 96.5,95.5C 95.5344,93.604 95.2011,91.604 95.5,89.5 Z"/></g>
<g><path style="opacity:1" fill="#fe9900" d="M 60.5,94.5 C 62.1667,94.5 63.8333,94.5 65.5,94.5C 65.5,95.5 65.5,96.5 65.5,97.5C 70.7959,95.5472 76.4626,94.5472 82.5,94.5C 88.5374,94.5472 94.2041,95.5472 99.5,97.5C 99.5,96.5 99.5,95.5 99.5,94.5C 101.167,94.5 102.833,94.5 104.5,94.5C 104.5,96.5 104.5,98.5 104.5,100.5C 89.8333,100.5 75.1667,100.5 60.5,100.5C 60.5,98.5 60.5,96.5 60.5,94.5 Z"/></g>
<g><path style="opacity:1" fill="#fe9900" d="M 70.5,101.5 C 71.5,101.5 72.5,101.5 73.5,101.5C 73.5,105.167 73.5,108.833 73.5,112.5C 72.5,112.5 71.5,112.5 70.5,112.5C 70.5,108.833 70.5,105.167 70.5,101.5 Z"/></g>
<g><path style="opacity:1" fill="#fe9900" d="M 75.5,101.5 C 76.8333,101.5 78.1667,101.5 79.5,101.5C 79.5,105.167 79.5,108.833 79.5,112.5C 78.1667,112.5 76.8333,112.5 75.5,112.5C 75.5,108.833 75.5,105.167 75.5,101.5 Z"/></g>
<g><path style="opacity:1" fill="#fe9900" d="M 80.5,101.5 C 81.8333,101.5 83.1667,101.5 84.5,101.5C 84.5,105.167 84.5,108.833 84.5,112.5C 83.1667,112.5 81.8333,112.5 80.5,112.5C 80.5,108.833 80.5,105.167 80.5,101.5 Z"/></g>
<g><path style="opacity:1" fill="#fe9900" d="M 85.5,101.5 C 86.8333,101.5 88.1667,101.5 89.5,101.5C 89.5,105.167 89.5,108.833 89.5,112.5C 88.1667,112.5 86.8333,112.5 85.5,112.5C 85.5,108.833 85.5,105.167 85.5,101.5 Z"/></g>
<g><path style="opacity:1" fill="#fe9900" d="M 90.5,101.5 C 91.8333,101.5 93.1667,101.5 94.5,101.5C 94.5,105.167 94.5,108.833 94.5,112.5C 93.1667,112.5 91.8333,112.5 90.5,112.5C 90.5,108.833 90.5,105.167 90.5,101.5 Z"/></g>
<g><path style="opacity:1" fill="#fe9900" d="M 26.5,114.5 C 63.8333,114.5 101.167,114.5 138.5,114.5C 138.5,120.833 138.5,127.167 138.5,133.5C 101.167,133.5 63.8333,133.5 26.5,133.5C 26.5,127.167 26.5,120.833 26.5,114.5 Z"/></g>
<g><path style="opacity:1" fill="#000000" d="M 79.5,115.5 C 87.5584,115.145 89.5584,118.479 85.5,125.5C 78.8745,127.705 76.0411,125.372 77,118.5C 77.6979,117.309 78.5313,116.309 79.5,115.5 Z"/></g>
<g><path style="opacity:1" fill="#fefffe" d="M -0.5,131.5 C 6.25968,171.928 29.593,196.928 69.5,206.5C 46.1667,206.5 22.8333,206.5 -0.5,206.5C -0.5,181.5 -0.5,156.5 -0.5,131.5 Z"/></g>
<g><path style="opacity:1" fill="#fefffe" d="M 165.5,133.5 C 165.5,157.833 165.5,182.167 165.5,206.5C 142.167,206.5 118.833,206.5 95.5,206.5C 134.169,196.831 157.503,172.498 165.5,133.5 Z"/></g>
<g><path style="opacity:1" fill="#fe9900" d="M 32.5,135.5 C 36.1667,135.5 39.8333,135.5 43.5,135.5C 43.5,138.5 43.5,141.5 43.5,144.5C 39.8333,144.5 36.1667,144.5 32.5,144.5C 32.5,141.5 32.5,138.5 32.5,135.5 Z"/></g>
<g><path style="opacity:1" fill="#fe9900" d="M 120.5,144.5 C 120.5,141.5 120.5,138.5 120.5,135.5C 124.5,135.5 128.5,135.5 132.5,135.5C 132.5,138.5 132.5,141.5 132.5,144.5C 128.5,144.5 124.5,144.5 120.5,144.5 Z"/></g>
<g><path style="opacity:1" fill="#fefffe" d="M 130.5,177.5 C 124.874,178.99 119.207,180.323 113.5,181.5C 105.784,180.651 98.4511,178.484 91.5,175C 86.8333,174.333 82.1667,174.333 77.5,175C 71.8738,176.823 66.2072,178.49 60.5,180C 56.5,180.667 52.5,180.667 48.5,180C 40.3941,176.815 32.0608,175.482 23.5,176C 19.9716,173.088 17.305,169.588 15.5,165.5C 15.8178,164.353 16.4844,163.519 17.5,163C 27.5274,161.169 37.194,162.502 46.5,167C 56.3051,168.608 65.6385,167.274 74.5,163C 85.7308,159.376 96.3974,160.709 106.5,167C 111.833,167.667 117.167,167.667 122.5,167C 126.904,164.467 131.571,162.467 136.5,161C 140.833,160.333 145.167,160.333 149.5,161C 150.308,161.308 150.975,161.808 151.5,162.5C 149.24,167.356 146.24,171.689 142.5,175.5C 141.707,175.069 140.873,174.735 140,174.5C 137.205,175.185 134.372,175.685 131.5,176C 130.944,176.383 130.611,176.883 130.5,177.5 Z"/></g>
<g><path style="opacity:1" fill="#006632" d="M 130.5,177.5 C 134.185,177.105 137.852,176.938 141.5,177C 114.761,203.282 83.7611,209.615 48.5,196C 40.0759,191.126 32.4092,185.292 25.5,178.5C 29.122,177.341 32.7887,177.175 36.5,178C 42.261,180.42 48.261,181.92 54.5,182.5C 64.6015,180.577 74.6015,178.243 84.5,175.5C 94.0333,178.067 103.533,180.734 113,183.5C 119.374,182.765 125.207,180.765 130.5,177.5 Z"/></g>
</svg>

<svg xmlns="http://www.w3.org/2000/svg" width="166" height="207" style="shape-rendering:geometricPrecision;text-rendering:geometricPrecision;image-rendering:optimizeQuality;fill-rule:evenodd;clip-rule:evenodd"><path style="opacity:1" d="M-.5-.5h166v134c-7.997 38.998-31.331 63.331-70 73h-26c-39.907-9.572-63.24-34.572-70-75V-.5z"/><path style="opacity:1" fill="#006632" d="M3.5 3.5h158c.167 44.335 0 88.668-.5 133a84.791 84.791 0 0 1-8 24c-10.317-3.668-19.817-2.168-28.5 4.5-9.569 2.675-18.569 1.342-27-4a93.893 93.893 0 0 0-11-1.5 554.87 554.87 0 0 0-32 7 633.375 633.375 0 0 0-29.5-7 39.988 39.988 0 0 0-10.5 3 29.834 29.834 0 0 1-4.5-6 258.88 258.88 0 0 1-6-21c-.5-43.999-.667-87.999-.5-132z"/><path style="opacity:1" d="M120.5 25.5c4.134-.985 8.468-1.318 13-1v10h7v12h-7v66c2.292-.256 4.459.077 6.5 1 .5 7.326.666 14.659.5 22h-7v10c-4.532.318-8.866-.015-13-1-.977-2.787-1.31-5.787-1-9h-74v10h-14v-10h-7c-.166-7.341 0-14.674.5-22 2.04-.923 4.207-1.256 6.5-1v-66h-7v-12h7v-10h14v10h30a216.22 216.22 0 0 0 0-23.5c1.582-2.872 4.082-4.038 7.5-3.5 2.352-.195 4.352.472 6 2-.377 7.899-.21 15.899.5 24a225.872 225.872 0 0 0 30 1c-.31-3.213.023-6.213 1-9z"/><path style="opacity:1" fill="#fe9900" d="M77.5 9.5c10.4-.179 10.4.821 0 3v-3zM85.5 16.5a20.68 20.68 0 0 1-9 .5l2-3a37.148 37.148 0 0 0 8-2.5 4.452 4.452 0 0 1 2 1.5c-.865 1.359-1.865 2.525-3 3.5zM85.5 16.5c2.673.184 3.34 1.351 2 3.5-3.432 2.072-7.098 2.738-11 2a11.383 11.383 0 0 1 2-2.5c2.627-.558 4.96-1.558 7-3zM81.5 28.5c-1.929.27-3.595-.23-5-1.5 3.52-3.121 7.52-4.288 12-3.5-1.988 2.208-4.322 3.875-7 5zM32.5 25.5h11v9h-11v-9zM120.5 25.5h12v9h-12v-9zM81.5 28.5a9.106 9.106 0 0 0 5-1c2.528 1.017 2.528 2.184 0 3.5l-8 2.5a4.452 4.452 0 0 1-2-1.5c1.456-1.626 3.122-2.792 5-3.5zM85.5 32.5c1.256-.039 2.256.461 3 1.5-2 .667-4 .667-6 0 1.237-.232 2.237-.732 3-1.5zM26.5 35.5h112v10h-112v-10zM32.5 46.5h11v66h-11v-66z"/><path style="opacity:1" fill="#006632" d="M45.5 46.5h30c.23 5.5.23 11.166 0 17h-3c-.166 5.011 0 10.011.5 15 3.94 4.514 2.772 6.18-3.5 5v5h-4v4c-6.565-1.078-8.732 1.589-6.5 8 3.394.956 6.894 1.289 10.5 1v11h-24v-66z"/><path style="opacity:1" fill="#fe9900" d="M76.5 46.5a40.936 40.936 0 0 1 9 .5 91.8 91.8 0 0 1-6.5 1.5c-1.376-.184-2.209-.85-2.5-2z"/><path style="opacity:1" fill="#006632" d="M88.5 47.5c10.153-.994 20.486-1.328 31-1v66h-24v-11c3.606.289 7.106-.044 10.5-1 2.232-6.411.065-9.078-6.5-8v-4h-4v-5h-5c1.421-3.781 2.088-7.781 2-12 .796-4.44-.537-7.94-4-10.5.893-4.766.893-9.266 0-13.5z"/><path style="opacity:1" fill="#fe9900" d="M120.5 46.5h12v66h-12v-66zM83.5 48.5c6.378 1.206 6.045 2.706-1 4.5-2 .667-4 .667-6 0 2.092-2.036 4.425-3.536 7-4.5zM83.5 53.5c1.788-.285 3.455.048 5 1-3.669 2.503-7.669 3.67-12 3.5 2.108-1.93 4.441-3.43 7-4.5zM84.5 57.5c1.478-.262 2.811.071 4 1l-.5 1a41.66 41.66 0 0 1-9.5 4c-.929-1.189-1.262-2.522-1-4 2.652.09 4.986-.576 7-2zM73.5 65.5h18v12h-18v-12z"/><path style="opacity:1" d="M81.5 66.5c1.208.734 2.541 1.067 4 1 1.374 3.6.207 6.267-3.5 8-5.733-2.846-5.9-5.846-.5-9z"/><path style="opacity:1" fill="#fe9900" d="M75.5 78.5c4.714-.327 9.38.007 14 1l-1 2c-4 1.333-8 1.333-12 0a5.576 5.576 0 0 1-1-3zM71.5 84.5h22v8h-22v-8zM66.5 89.5h3v6h-3v-6zM95.5 89.5c1.194.47 1.86 1.47 2 3l-1 3a9.864 9.864 0 0 1-1-6z"/><path style="opacity:1" fill="#fe9900" d="M60.5 94.5h5v3c5.296-1.953 10.963-2.953 17-3 6.037.047 11.704 1.047 17 3v-3h5v6h-44v-6zM70.5 101.5h3v11h-3v-11zM75.5 101.5h4v11h-4v-11zM80.5 101.5h4v11h-4v-11zM85.5 101.5h4v11h-4v-11zM90.5 101.5h4v11h-4v-11zM26.5 114.5h112v19h-112v-19z"/><path style="opacity:1" d="M79.5 115.5c8.058-.355 10.058 2.979 6 10-6.626 2.205-9.459-.128-8.5-7 .698-1.191 1.531-2.191 2.5-3z"/><path style="opacity:1" fill="#fefffe" d="M-.5 131.5c6.76 40.428 30.093 65.428 70 75h-70v-75zM165.5 133.5v73h-70c38.669-9.669 62.003-34.002 70-73z"/><path style="opacity:1" fill="#fe9900" d="M32.5 135.5h11v9h-11v-9zM120.5 144.5v-9h12v9h-12z"/><path style="opacity:1" fill="#fefffe" d="M130.5 177.5a314.592 314.592 0 0 1-17 4 64.448 64.448 0 0 1-22-6.5 49.226 49.226 0 0 0-14 0 323.969 323.969 0 0 1-17 5c-4 .667-8 .667-12 0-8.106-3.185-16.44-4.518-25-4-3.528-2.912-6.195-6.412-8-10.5.318-1.147.984-1.981 2-2.5 10.027-1.831 19.694-.498 29 4 9.805 1.608 19.138.274 28-4 11.23-3.624 21.897-2.291 32 4a64.218 64.218 0 0 0 16 0 65.393 65.393 0 0 1 14-6 42.479 42.479 0 0 1 13 0 4.457 4.457 0 0 1 2 1.5 46.338 46.338 0 0 1-9 13 11.456 11.456 0 0 0-2.5-1 65.81 65.81 0 0 1-8.5 1.5c-.556.383-.889.883-1 1.5z"/><path style="opacity:1" fill="#006632" d="M130.5 177.5a88.941 88.941 0 0 1 11-.5c-26.739 26.282-57.739 32.615-93 19a114.39 114.39 0 0 1-23-17.5c3.622-1.159 7.289-1.325 11-.5a60.72 60.72 0 0 0 18 4.5 374.66 374.66 0 0 0 30-7 1394.146 1394.146 0 0 1 28.5 8c6.374-.735 12.207-2.735 17.5-6z"/></svg>
